X:1
T:Save Me at the Cross
T:Save Me at the Cross
T:Hubert Platt Main
T:Frances Jane (Fanny) Crosby, 1873
T:Public Domain Courtesy of the Cyber Hymnal™
T:Public Domain Courtesy of the Cyber Hymnal™
C:Hubert Platt Main
Z:Public Domain
Z:Courtesy of the Cyber Hymnal™
%%score 1 ( 2 3 )
L:1/8
Q:1/4=110
M:6/8
K:A
V:1 treble 
V:2 bass 
V:3 bass 
V:1
 [CE]2 [CE] ([CE][A,C])[CE] | [EA]2 [CA] [CA]3 | [DB]2 [DB] ([DB]2 [CA]) | [Ec]2 [Ec] [Ec]3 | %4
w: 1.~Lov- ing Sav- * ior,|hear my cry,|Hear my cry, *|hear my cry;|
w: 2.~Though I per- * ish|I will pray,|I will pray, *|I will pray;|
w: 3.~Wash me in * Thy|cleans- ing blood,|Cleans- ing blood, *|cleans- ing blood;|
 [CE]2 [CE] ([CE][A,C])[CE] | [EA]2 [CA] [CA]2 [Ec] | [DB]2 [FA] [Ec]2 [DB] | [CA]6 | %8
w: Trem- bling to * Thy|arms I fly, Oh,|save me at the|cross.|
w: Thou of life * the|Liv- ing Way, Oh,|save me at the|cross.|
w: Plunge me now * be-|neath the flood, Oh,|save me at the|cross.|
 [CE]2 [CE] ([CE][A,C])[CE] | [EA]2 [CA] [CA]3 | [DB]2 [DB] ([DB]2 [CA]) | [Ec]2 [Ec] [Ec]3 | %12
w: I have sinned, * but|Thou hast died,|Thou hast died, *|Thou hast died;|
w: Thou hast said * Thy|grace is free,|Grace is free, *|grace is free;|
w: On- ly faith * will|par- don bring,|Par- don bring, *|par- don bring,|
 [CE]2 [CE] ([CE][A,C])[CE] | [EA]2 [CA] [CA]2 [Ec] | [DB]2 [FA] [Ec]2 [DB] | [CA]6 || %16
w: In Thy mer- * cy|let me hide, Oh,|save me at the|cross.|
w: Have com- pass- * ion,|Lord, on me, Oh,|save me at the|cross.|
w: In that faith * to|Thee I cling, Oh,|save me at the|cross.|
"^Refrain" [Ec]3 [DB][DA][DF] | [CE]3 [CA]3 | [DB]3 [DB][CA][EB] | [Ec]3 [CA]3 | %20
w: ||||
w: ||||
w: ||||
 [Ec]3 [DB][DA][DF] | [CE]3 [CA]2 [Ec] | [^DB]2 [DA] [Ec]2 [=DB] | [CA]6 |] %24
w: ||||
w: ||||
w: ||||
V:2
 [A,,A,]2 [A,,A,] (A,E,)[A,,A,] | [A,,C]2 [A,,A,] [A,,E,]3 | [E,G,]2 [E,G,] ([E,G,]2 A,) | %3
w: ~ ~ ~ * ~|~ ~ ~|~ ~ ~ *|
 [A,,A,]2 [A,,E,] [A,,E,]3 | [A,,A,]2 [A,,A,] (A,E,)[A,,A,] | [A,,C]2 [A,,A,] [A,,E,]2 [A,,A,] | %6
w: ~ ~ ~|~ ~ ~ * ~|~ ~ ~ ~|
 [D,F,]2 [D,A,] [E,A,]2 [E,G,] | [A,,A,]6 | [A,,A,]2 [A,,A,] (A,E,)[A,,A,] | %9
w: ~ ~ ~ ~|~|~ ~ ~ * ~|
 [A,,C]2 [A,,A,] [A,,E,]3 | [E,G,]2 [E,G,] ([E,G,]2 A,) | [A,,A,]2 [A,,E,] [A,,E,]3 | %12
w: ~ ~ ~|~ ~ ~ *|~ ~ ~|
 [A,,A,]2 [A,,A,] (A,E,)[A,,A,] | [A,,C]2 [A,,A,] [A,,E,]2 [A,,A,] | %14
w: ~ ~ ~ * ~|~ ~ ~ ~|
 [D,F,]2 [D,A,] [E,A,]2 [E,G,] | [A,,A,]6 || (A,2 E,) [D,F,][D,F,][D,A,] | (A,2 E,) [A,,E,]3 | %18
w: ~ ~ ~ ~|~|Lord * Je- sus, re-|ceive * me,|
 [E,G,]3 [E,G,][E,A,][E,G,] | A,3 [A,,E,]3 | (A,2 E,) [D,F,][D,F,][D,A,] | %21
w: No more would I|grieve Thee;|Now, * bless- èd Re-|
 [A,,A,]3 [A,,A,]2 [A,,A,] | [B,,A,]2 [B,,A,] [E,A,]2 [E,G,] | [A,,A,]6 |] %24
w: deem- er, Oh,|save me at the|cross.|
V:3
 x3 A,,2 x | x6 | x5 A, | x6 | x3 A,,2 x | x6 | x6 | x6 | x3 A,,2 x | x6 | x5 A, | x6 | x3 A,,2 x | %13
 x6 | x6 | x6 || A,,3 x3 | A,,3 x3 | x6 | A,3 x3 | A,,3 x3 | x6 | x6 | x6 |] %24

